X: 1
T: High Road to Linton
O: Traditional
%R: reel
F: http://ancients.sudburymuster.org/mus/sng/pdf/highroadC0.pdf
Z: 2020 John Chambers <jc:trillian.mit.edu>
M: 4/4
L: 1/8
K: A
|:\
ceef  a2ae | f2fe a2ae |\
ceef a2ae | faec B2A2 :|\
|:\
cee=g fddf | ecce fBBd |
ceea fddf | ecac B2A2 :|\
|:\
a2a2  efa2 | efae faef |\
a2a2 efae | faec B2A2 :|
